X:1
T:Sharon, LM
T:Sharon, LM
T:Frederick Arthur Gore-Ouseley, 1875
T:Public Domain Courtesy of the Cyber Hymnal™
C:Frederick Arthur Gore-Ouseley, 1875
Z:Public Domain
Z:Courtesy of the Cyber Hymnal™
%%score ( 1 2 ) ( 3 4 )
L:1/8
Q:1/4=110
M:none
K:A
V:1 treble 
V:2 treble 
V:3 bass 
V:4 bass 
V:1
 [CA]2 | [EA]2 E2 [FA]2 [Fd]2 | [Ac]2 [GB]2 A2 [Ec]2 x | [EB]2 [A^d]2 [Ge]2 [EA]2 | %4
 [EG]2 [^DF]2 E2 [EB]2 x | [EG]2 E2 [Ec]2 [EA]2 | [Dd]2 [FB]2 [EG]2 [EB]2 | [Ee]2 d2 [Ec]2 (BF) x | %8
 A2 z [CA]2 x |] %9
V:2
 x2 | x2 E2 x4 | x4 A2 x3 | x8 | x4 E2 x3 | x2 E2 x4 | x8 | x2 (ED) x F2 x2 | E3 (B2 D) |] %9
V:3
 [A,,A,]2 | [A,C]2 [G,B,]2 [F,C]2 [B,,D]2 | E3 z D [A,C]2 A,2 | [G,B,]2 [F,B,]2 [E,B,]2 [C,A,]2 | %4
 B,3 z A, [E,G,]2 [E,G,]2 | [E,B,]2 [G,B,]2 A,2 [A,C]2 | [F,A,]2 [D,D]2 [E,B,]2 G,2 | %7
 A,3 z G, [C,A,]2 [D,D]2 | [E,C]2 [E,G,]2 [A,,A,]2 |] %9
V:4
 x2 | x8 | E,2 (E,2 x A,2) x2 | x8 | B,,2 B,,2 x5 | x4 A,2 x2 | x6 (E,D,) | C,2 B,,2 x5 | x6 |] %9

